!!!SOCIAL_FUNCTION:	songs connected with legends
!!!PDT:	1929
!!!OTL: No_16_Song_After_the_Inhabitants_of_Casa_Grande_Were_Killed.krn
!!!REG: Southwest
!!!LANG: Non-Tone
!!!LING_GROUP: Uto-Aztecan
**kern
*staff1
*clefF4
*k[b-e-]
*M3/4
4B-\
=1
4..d\
16c\
4c\
=2
16c\LK
[8.B-\J
8.B-\L]
16B-\Jk
4B-\
=3
16G\LK
[8.F\J
4F\]
8B-\L
8B-\J
=4
4..c\
16B-\
4B-\
=5
16c\LK
[8.B-\J
8.B-\L]
16B-\Jk
4B-\
=6
16G\LK
[8.F\J
4F\]
4B-\
=7||
*M3/4
16B-\LK
[8.B-\J
4B-\]
8c\L
8B-\J
=8||
*M2/4
4B-\
4B-\
=9
8c\L
8B-\J
8c\L
8B-\J
=10||
*M3/4
4B-\
2B-\
=11
4d\
4d\
4c\
=12
8B-\L
8F\J
2F\
=13||
*M2/4
2F\
=14||
*M3/4
4c\
4B-\
4c\
=15
2.B-\
=16||
*M2/4
2B-\
=17
4c\
4c\
=18||
*M3/4
8B-\L
8B-\J
2B-\
=19||
*M2/4
4B-\
4B-\
=20
4B-\
8c\L
8B-\J
=21
4B-\
4B-\
=22
8c\L
8B-\J
8c\L
8B-\J
=23
2B-\
==
*-
